X:1
T:I See Thee Standing
T:I See Thee Standing
T:Anonymous
T:Public Domain Courtesy of the Cyber Hymnal™
C:Anonymous
Z:Public Domain
Z:Courtesy of the Cyber Hymnal™
%%score ( 1 2 ) 3
L:1/8
Q:1/4=170
M:3/2
K:Eb
V:1 treble 
V:2 treble 
V:3 bass 
V:1
 [EB]4 | [Ec]2 [EB]2 [EG]4 [EB]4 | [GB]2 [FA]2 [DF]4 [DG]4 | E2 E2 [DF]4 [FB]4 | [EG]6 z2 [EB]4 | %5
 [Ec]2 [EB]2 [EG]4 [EB]4 | [GB]2 [FA]2 [DF]4 [EB]4 | E2 [EA]2 [EG]4 [DF]4 | E6 z2 [EG]4 | %9
 [DF]2 [EG]2 [EA]4 [EB]4 | [Ec]2 [Ec]2 [EB]4 [Ge]4 | [Fd]2 [Gc]2 [FB]4 [E=A]4 | [DB]6 z2 [EB]4 | %13
 [Ec]2 [EB]2 [EG]4 [EB]4 | [GB]2 [FA]2 [DF]4 [EB]4 | E2 [EA]2 [EG]4 [DF]4 | [B,E]8 |] %17
V:2
 x4 | x12 | x12 | E2 E2 x8 | x12 | x12 | x12 | E2 x10 | E6 x6 | x12 | x12 | x12 | x12 | x12 | x12 | %15
 E2 x10 | x8 |] %17
V:3
 [E,G,]4 | [E,A,]2 [E,G,]2 [E,B,]4 [E,G,]4 | [B,,B,]2 [B,,B,]2 [B,,B,]4 [=B,,G,]4 | %3
 [C,G,]2 [C,G,]2 [B,,B,]4 [D,B,]4 | [E,B,]6 z2 [E,G,]4 | [E,A,]2 [E,G,]2 [E,B,]4 [E,G,]4 | %6
 [B,,B,]2 [B,,B,]2 [B,,B,]4 [G,,B,]4 | [C,G,]2 [A,,C]2 [B,,B,]4 [B,,A,]4 | [E,G,]6 z2 [E,B,]4 | %9
 [B,,B,]2 [E,B,]2 [C,A,]4 [E,G,]4 | [A,,A,]2 [C,A,]2 [E,G,]4 [C,C]4 | %11
 [D,B,]2 [E,E]2 [F,D]4 [F,C]4 | [B,,B,]6 z2 [E,G,]4 | [E,A,]2 [E,G,]2 [E,B,]4 [E,G,]4 | %14
 [B,,B,]2 [B,,B,]2 [B,,B,]4 [G,,B,]4 | [C,G,]2 [A,,C]2 [B,,B,]4 [B,,A,]4 | [E,G,]8 |] %17

